X:90
T:Baby Rory's Slip Jig
R:slip jig
C:Michael McGoldrick
Z:hn-slipjig-90
M:9/8
L:1/8
K:Ador
ABA AGE ~G3 | ABA AGE GED | ABA AGE G2E | DED DEF GED :|
|: GAB deB d2B | GAB dge dBA | GAB deB d2B | ABA AGE GED :|

